img/svg/night.svg

<?xml version="1.0" encoding="UTF-8"?>
<svg width="76px" height="76px" viewBox="0 0 76 76" version="1.1" xmlns="http://www.w3.org/2000/svg" xmlns:xlink="http://www.w3.org/1999/xlink">
    <!-- Generator: Sketch 52.6 (67491) - http://www.bohemiancoding.com/sketch -->
    <title>Shape</title>
    <desc>Created with Sketch.</desc>
    <g id="Quentia-Index-1.5" stroke="none" stroke-width="1" fill="none" fill-rule="evenodd">
        <g id="index-menu-clicked" transform="translate(-787.000000, -1881.000000)" fill="#000000" fill-rule="nonzero">
            <g id="Group-18" transform="translate(335.000000, 1871.000000)">
                <g id="Group-14">
                    <g id="noun_Moon_2266525" transform="translate(452.000000, 10.000000)">
                        <path d="M38.7804442,75.663932 C28.9602723,75.663932 19.2492135,71.9540893 11.8295281,64.5344039 C-3.0098427,49.6950331 -3.0098427,25.3628295 11.8295281,10.5234587 C16.521388,5.83159885 22.3043781,2.44909521 28.6329333,0.703286882 C29.0693854,0.594173862 29.5058374,0.703286882 29.8331765,1.13973896 C30.0514025,1.46707803 30.1605156,2.01264313 29.8331765,2.33998219 C21.758813,15.1062056 23.6137343,31.3640457 34.3068103,42.0571217 C44.9998864,52.7501977 61.2577264,54.496006 74.0239498,46.5307555 C74.3512889,46.3125295 74.896854,46.3125295 75.2241931,46.5307555 C75.5515321,46.7489816 75.7697582,47.2945467 75.6606451,47.7309988 C73.9148368,54.0595539 70.5323332,59.9516571 65.8404733,64.5344039 C58.3116749,71.9540893 48.600616,75.663932 38.7804442,75.663932 Z M26.5597859,3.54022542 C21.6497,5.28603375 17.0669531,8.2320853 13.3571104,11.941928 C-0.718469268,26.0175077 -0.718469268,48.822129 13.3571104,62.8977086 C27.43269,76.9732883 50.2373113,76.9732883 64.312891,62.8977086 C68.0227337,59.1878659 70.9687853,54.6051191 72.7145936,49.6950331 C59.5119181,56.5691534 43.4723041,54.168667 32.7792281,43.475591 C22.086152,32.7825149 19.6856656,16.7429009 26.5597859,3.54022542 Z" id="Shape"></path>
                    </g>
                </g>
            </g>
        </g>
    </g>
</svg>

<svg width="76" height="76" viewBox="0 0 76 76" xmlns="http://www.w3.org/2000/svg"><title>Shape</title><path d="M38.78 75.664c-9.82 0-19.53-3.71-26.95-11.13-14.84-14.839-14.84-39.171 0-54.01C16.52 5.831 22.304 2.448 28.633.703c.436-.11.873 0 1.2.436.218.327.328.873 0 1.2-8.074 12.766-6.22 29.024 4.474 39.717C45 52.75 61.257 54.496 74.024 46.531c.327-.218.873-.218 1.2 0 .328.218.546.764.437 1.2-1.746 6.329-5.129 12.22-9.82 16.803-7.53 7.42-17.24 11.13-27.06 11.13zM26.56 3.54c-4.91 1.746-9.493 4.692-13.203 8.402-14.075 14.076-14.075 36.88 0 50.956 14.076 14.075 36.88 14.075 50.956 0 3.71-3.71 6.656-8.293 8.402-13.203-13.203 6.874-29.243 4.474-39.936-6.22C22.086 32.784 19.686 16.744 26.56 3.54z" fill="#000" fill-rule="nonzero"/></svg>
